packages/icons/src/twitter-logo.svg

<svg width="15" height="15" viewBox="0 0 15 15" fill="none" xmlns="http://www.w3.org/2000/svg">
  <path
    fill-rule="evenodd"
    clip-rule="evenodd"
    d="M7.23336 4.69629C7.23336 2.96884 8.63335 1.56857 10.36 1.56857C11.3736 1.56857 12.183 2.04804 12.7254 2.74385C13.3079 2.62467 13.8557 2.40913 14.3513 2.11508C14.1559 2.72598 13.7424 3.2396 13.2033 3.56463C13.2038 3.56568 13.2042 3.56674 13.2047 3.56779C13.7334 3.50361 14.2364 3.36302 14.7048 3.15546L14.7037 3.15715C14.3667 3.66183 13.9431 4.10736 13.4561 4.47034C13.4823 4.64672 13.4956 4.82427 13.4956 5.00079C13.4956 8.6871 10.6873 12.9746 5.52122 12.9746C3.93906 12.9746 2.46544 12.511 1.22505 11.7152C0.992632 11.5661 0.925108 11.2568 1.07423 11.0244C1.0874 11.0038 1.10183 10.9846 1.11734 10.9666C1.20582 10.8202 1.37438 10.7309 1.5554 10.7522C2.47066 10.8601 3.38568 10.7485 4.19219 10.3962C3.39226 10.0434 2.77129 9.35975 2.50204 8.51974C2.45359 8.3686 2.48835 8.20311 2.59351 8.08422C2.59716 8.0801 2.60087 8.07606 2.60464 8.0721C1.96391 7.50819 1.55973 6.68208 1.55973 5.76143V5.72759C1.55973 5.56814 1.64411 5.42059 1.78155 5.33974C1.82671 5.31317 1.87537 5.29511 1.92532 5.28558C1.70549 4.86154 1.58116 4.37984 1.58116 3.86958C1.58116 3.40165 1.58384 2.81192 1.91332 2.28081C1.98718 2.16175 2.10758 2.08915 2.2364 2.07195C2.42588 2.01237 2.64087 2.06969 2.77406 2.23302C3.86536 3.57126 5.44066 4.49583 7.23366 4.73961L7.23336 4.69629ZM5.52122 11.9746C4.73387 11.9746 3.97781 11.8435 3.27248 11.6023C4.13012 11.4538 4.95307 11.1159 5.66218 10.5602C5.81211 10.4427 5.87182 10.2435 5.81126 10.0629C5.7507 9.88234 5.583 9.75943 5.39255 9.75607C4.68968 9.74366 4.06712 9.39716 3.67793 8.86845C3.86828 8.85306 4.05428 8.82039 4.23445 8.77167C4.43603 8.71716 4.57363 8.53114 4.56674 8.32243C4.55985 8.11372 4.41029 7.93718 4.20555 7.89607C3.42694 7.73977 2.79883 7.16764 2.56169 6.42174C2.76255 6.47025 2.97102 6.4991 3.18482 6.5061C3.38563 6.51267 3.56646 6.38533 3.62795 6.19405C3.68943 6.00277 3.61666 5.79391 3.44963 5.68224C2.86523 5.29155 2.48116 4.62464 2.48116 3.86958C2.48116 3.70213 2.48352 3.55268 2.49355 3.41719C3.85115 4.79913 5.70873 5.68931 7.77588 5.79338C7.93225 5.80126 8.08328 5.73543 8.18395 5.61553C8.28463 5.49562 8.32332 5.33548 8.28851 5.18284C8.25255 5.02517 8.23336 4.86284 8.23336 4.69629C8.23336 3.52085 9.18591 2.56857 10.36 2.56857C11.5943 2.56857 12.4956 3.71208 12.4956 5.00079C12.4956 8.25709 10.0202 11.9746 5.52122 11.9746Z"
    fill="currentColor"
  />
</svg>

<svg xmlns="http://www.w3.org/2000/svg" width="15" height="15" fill="none"><path fill="currentColor" fill-rule="evenodd" d="M7.233 4.696c0-1.727 1.4-3.127 3.127-3.127 1.014 0 1.823.479 2.365 1.175a5.3 5.3 0 0 0 1.626-.629 2.63 2.63 0 0 1-1.148 1.45l.002.003a5.3 5.3 0 0 0 1.5-.413l-.001.002c-.337.505-.76.95-1.248 1.313q.04.266.04.53c0 3.687-2.809 7.975-7.975 7.975a7.93 7.93 0 0 1-4.296-1.26.5.5 0 0 1-.108-.748.45.45 0 0 1 .438-.215c.916.108 1.83-.004 2.637-.356a3.1 3.1 0 0 1-1.69-1.876.45.45 0 0 1 .103-.448 3.07 3.07 0 0 1-1.045-2.31v-.034a.45.45 0 0 1 .365-.442 3.1 3.1 0 0 1-.344-1.416c0-.468.003-1.058.332-1.59a.45.45 0 0 1 .323-.208.5.5 0 0 1 .538.161 6.96 6.96 0 0 0 4.46 2.507zm-1.712 7.279a7 7 0 0 1-2.249-.373 5.3 5.3 0 0 0 2.39-1.042.45.45 0 0 0-.27-.804 2.17 2.17 0 0 1-1.714-.888q.285-.023.556-.096a.45.45 0 0 0-.028-.876 2.18 2.18 0 0 1-1.644-1.474q.301.073.623.084a.45.45 0 0 0 .265-.824 2.18 2.18 0 0 1-.97-1.812q-.001-.25.013-.453a7.95 7.95 0 0 0 5.282 2.376.5.5 0 0 0 .513-.61 2.127 2.127 0 0 1 2.071-2.614c1.234 0 2.136 1.143 2.136 2.432 0 3.256-2.476 6.974-6.975 6.974" clip-rule="evenodd"/></svg>
